X: 1
T: Aberdaugleddau
O: trad. Wales
R: jig
S: http://mochpryderi.com/Resources/Aberdaugleddau.pdf
Z: 2020 John Chambers <jc:trillian.mit.edu>
M: 6/8
L: 1/8
K: D
|:\
"D"DEF F2E | D3 A3 | FGA A2G | F3 D3 | d2c d2A |\
"G"B2c d2F | "D"G2F E2D |1 "A"E3 A,3 :|2 "D"F3 E3 | D3- D3 ||
|:\
"D"D2F A2F | "A"EA2 ABA | "D"D2F A2F | "A"E3 A3 |\
"D"D2F A2F | "G"B2G F2E | "D"FGA "A"ABc | "D"d3- d3 :|
